X:489
T: Minguo shijie zhenbuping
N: C1908
O: China, Zhejiang Longquan
S: III, 635]
R: Shange]
M: 2/4
L: 1/16
K: D
B2f2f2ff | e2f2^d2e2- | e6dB
^d2e2d2e2 | e3dB2A2 | B6z2
B2ddB2dd | e2d2e2z2 | e2ddB2e2 | e2B2^d2e2- | e6z2
B2Bde4 | e2dBB4 | ^d2e2e2=d2 | e3dB2A2 | B6z2

